X: 13
T:5 time waltz
M:5/4
L:1/4
R:Waltz
Z:Steve Mansfield
K:G
D/G/ | FAGBB | AcBGD/G/ | FAGBd | cAG2 :| d | cABGd |
cABGD/G/ | FABGd | cAd2d | cABGd | cABGD/G/ | FAGBd | cAG2 ||

